src/img/svg/cart.svg

<svg xmlns="http://www.w3.org/2000/svg" viewBox="0 0 138 176"><defs><style>.cls-1 { fill-rule: evenodd; }</style></defs><path class="cls-1" d="M1722.75 85.53a2.876 2.876 0 1 0 5.75 0 11.5 11.5 0 1 0-23 0 2.876 2.876 0 1 0 5.75 0 5.751 5.751 0 1 1 11.5 0zm40.25-11.735a11.633 11.633 0 0 0-11.5 11.736 2.876 2.876 0 1 0 5.75 0 5.751 5.751 0 1 1 11.5 0 2.876 2.876 0 1 0 5.75 0 11.633 11.633 0 0 0-11.5-11.736zm43.12-11.732v-41.063h-132.25v41.062h-2.87v134.938h138v-134.938h-2.88zm-7.18 0l-14.9-20.257 14.65-14.943h1.68v35.2h-1.43zm-96.32 0v-20.532a1.479 1.479 0 0 0-.04-.2 2.552 2.552 0 0 0-.1-.549 2.263 2.263 0 0 0-.08-.368 1.6 1.6 0 0 0-.1-.179 2.856 2.856 0 0 0-.3-.446 3.888 3.888 0 0 0-.22-.332l-12.34-12.59h101.12l-12.34 12.59a3.888 3.888 0 0 0-.22.332 2.856 2.856 0 0 0-.3.446 1.36 1.36 0 0 0-.1.179 2.3 2.3 0 0 0-.08.368 3.311 3.311 0 0 0-.11.549l-.04.2v20.531h-74.75zm-14.37 0l8.62-11.736v11.735h-8.62zm94.87-11.736l8.63 11.736h-8.63v-11.736zm-103.5-23.465h1.69l14.64 14.943-14.89 20.257h-1.44v-35.2zm123.63 164.268h-126.5v-123.2h126.5v123.2zm-40.25-108.53a2.905 2.905 0 0 0-2.88 2.933v17.6a20.129 20.129 0 1 1-40.25 0v-17.603a2.876 2.876 0 1 0-5.75 0v17.6c0 14.557 11.61 26.4 25.88 26.4s25.87-11.842 25.87-26.4v-17.6a2.9 2.9 0 0 0-2.87-2.93z" transform="translate(-1671 -21)"/></svg>

<svg xmlns="http://www.w3.org/2000/svg" viewBox="0 0 138 176">
  <defs>
    <style>
      .cls-1 {
        fill-rule: evenodd;
      }
    </style>
  </defs>
  <path class="cls-1" d="M1722.75,85.53a2.876,2.876,0,1,0,5.75,0,11.5,11.5,0,1,0-23,0,2.876,2.876,0,1,0,5.75,0A5.751,5.751,0,1,1,1722.75,85.53ZM1763,73.795a11.633,11.633,0,0,0-11.5,11.736,2.876,2.876,0,1,0,5.75,0,5.751,5.751,0,1,1,11.5,0,2.876,2.876,0,1,0,5.75,0A11.633,11.633,0,0,0,1763,73.795Zm43.12-11.732V21H1673.87V62.062H1671V197h138V62.062h-2.88Zm-7.18,0-14.9-20.257,14.65-14.943h1.68v35.2h-1.43Zm-96.32,0V41.531a1.479,1.479,0,0,0-.04-0.2,2.552,2.552,0,0,0-.1-0.549,2.263,2.263,0,0,0-.08-0.368,1.6,1.6,0,0,0-.1-0.179,2.856,2.856,0,0,0-.3-0.446,3.888,3.888,0,0,0-.22-0.332l-12.34-12.59h101.12l-12.34,12.59a3.888,3.888,0,0,0-.22.332,2.856,2.856,0,0,0-.3.446,1.36,1.36,0,0,0-.1.179,2.3,2.3,0,0,0-.08.368,3.311,3.311,0,0,0-.11.549c0,0.07-.04.135-0.04,0.2V62.062h-74.75Zm-14.37,0,8.62-11.736V62.062h-8.62Zm94.87-11.736,8.63,11.736h-8.63V50.327Zm-103.5-23.465h1.69l14.64,14.943-14.89,20.257h-1.44v-35.2ZM1803.25,191.13h-126.5V67.93h126.5v123.2ZM1763,82.6a2.905,2.905,0,0,0-2.88,2.933v17.6a20.129,20.129,0,1,1-40.25,0V85.53a2.876,2.876,0,1,0-5.75,0v17.6c0,14.557,11.61,26.4,25.88,26.4s25.87-11.842,25.87-26.4V85.53A2.9,2.9,0,0,0,1763,82.6Z" transform="translate(-1671 -21)"/>
</svg>
